!!!OTL: WOHL AUF KAMERADEN
!!!ARE: Europa, Mitteleuropa, Deutschland
!!!SCT: F0561
!!!YEM: Copyright 1995, estate of Helmut Schaffrath.
**kern
*ICvox
*Ivox
*M4/4
*k[]
*C:
{4G
=1
4c
8.c
16c
8.c
16G
8.E
16C
=2
4G
8.G
16G
4G}
{4e
=3
4e
8.d
16e
4f
8.e
16e
=4
4e
4d
4r}
{4G
=5
4c
8.c
16c
8.c
16G
8.E
16C
=6
4G
8.G
16G
4G}
{4e
=7
4e
8.d
16e
4f
8.e
16e
=8
4e
4d
4r}
{8.G
16B
=9
4d
4d
4d
8.c
16d
=10
4e
8.d
16d
4c}
{8.g
16g
=11
4g
4G
4G
8A
8B
=12
8.c
16e
8.d
16B
4c}
{8.G
16B
=13
4d
4d
4d
8.c
16d
=14
4e
8.d
16d
4c}
{8.g
16g
=15
4g
4G
4G
8A
8B
=16
8.c
16e
8.d
16B
4c}
==
!!!AGN: Soldaten -, Kriegs - Lied
!!!ONB: ESAC (Essen Associative Code) Database: FINK
!!!AMT: simple quadruple
!!!AIN: vox
!!!EED: Helmut Schaffrath
!!!EEV: 1.0
*-
